X: 17810
T: Hop Break
R: jig
M: 6/8
K: Bminor
F|:B2c dcB|efg f2d|B2f fed|cAc edc|
B2c dcB|efg f3|fed cAc|1 ~B3 B2F:|2 ~B3 B2f||
|:fdB fdB|~g3 g2f|ecA ecA|~f3 f2e|
dBG dBG|efg f3|dcB AFA|1 ~B3 B2f:|2 ~B3 B2F||

